dist/gratipay.svg

<svg width="188" height="52" viewBox="0 0 188 52" xmlns="http://www.w3.org/2000/svg"><title>gratipay</title><desc>Created with Sketch.</desc><defs><linearGradient x1="48.2%" y1="3.25%" x2="48.2%" y2="99.657%" id="a"><stop stop-color="#8ADD6D" offset="0%"/><stop stop-color="#60B044" offset="100%"/></linearGradient><filter x="-50%" y="-50%" width="200%" height="200%" filterUnits="objectBoundingBox" id="b"><feOffset dy="-1" in="SourceAlpha" result="shadowOffsetOuter1"/><feGaussianBlur in="shadowOffsetOuter1" result="shadowBlurOuter1"/><feColorMatrix values="0 0 0 0 0 0 0 0 0 0 0 0 0 0 0 0 0 0 0.35 0" in="shadowBlurOuter1" result="shadowMatrixOuter1"/><feMerge><feMergeNode in="shadowMatrixOuter1"/><feMergeNode in="SourceGraphic"/></feMerge></filter></defs><g fill="none" fill-rule="evenodd"><g><g><g transform="translate(1 1) translate(-.5 .125)"><rect stroke="#5CA941" fill="url(#a)" width="187" height="50" rx="3"/><path d="M26.95513,10.56585 C18.98364,10.56585 12.521,17.02855 12.521,25.00005 C12.521,32.97255 18.98364,39.43415 26.95513,39.43415 C34.92855,39.43415 41.38927,32.97255 41.38927,25.00005 C41.38927,17.02855 34.92855,10.56585 26.95513,10.56585 L26.95513,10.56585 Z M23.05792,19.05805 C23.97771,19.11705 24.76596,19.67325 25.27115,20.26085 C25.57331,20.61115 26.10063,21.00655 27.07542,21.00655 C28.05213,21.00655 28.55444,20.61115 28.85563,20.26085 C29.66394,19.32065 31.20069,18.49215 32.82501,19.56315 C34.73224,20.82085 34.19818,23.09475 33.64295,23.74905 L27.07542,32.65015 L20.50789,23.74905 C19.95265,23.09475 19.39453,20.82085 21.30176,19.56315 C21.91089,19.16155 22.50604,19.02265 23.05792,19.05805 L23.05792,19.05805 Z" fill="#fff"/></g></g><text fill="#fff" filter="url(#b)" font-family="Helvetica" font-size="12.5" font-weight="bold" transform="translate(1 1)"><tspan x="50" y="28" fill="#fff">Support via Gratipay</tspan></text></g></g></svg>

<svg width="188" height="52" viewBox="0 0 188 52" xmlns="http://www.w3.org/2000/svg"><title>gratipay</title><desc>Created with Sketch.</desc><defs><linearGradient x1="48.2%" y1="3.25%" x2="48.2%" y2="99.657%" id="a"><stop stop-color="#8ADD6D" offset="0%"/><stop stop-color="#60B044" offset="100%"/></linearGradient><filter x="-50%" y="-50%" width="200%" height="200%" filterUnits="objectBoundingBox" id="b"><feOffset dy="-1" in="SourceAlpha" result="shadowOffsetOuter1"/><feGaussianBlur in="shadowOffsetOuter1" result="shadowBlurOuter1"/><feColorMatrix values="0 0 0 0 0 0 0 0 0 0 0 0 0 0 0 0 0 0 0.35 0" in="shadowBlurOuter1" result="shadowMatrixOuter1"/><feMerge><feMergeNode in="shadowMatrixOuter1"/><feMergeNode in="SourceGraphic"/></feMerge></filter></defs><g fill="none" fill-rule="evenodd"><g><g><g transform="translate(1 1) translate(-.5 .125)"><rect stroke="#5CA941" fill="url(#a)" width="187" height="50" rx="3"/><path d="M26.955 10.566c-7.97 0-14.434 6.463-14.434 14.434 0 7.973 6.464 14.434 14.435 14.434 7.974 0 14.434-6.46 14.434-14.434 0-7.97-6.46-14.434-14.435-14.434zm-3.897 8.492c.92.06 1.708.615 2.213 1.203.303.35.83.747 1.805.747.977 0 1.48-.396 1.78-.746.81-.94 2.346-1.768 3.97-.697 1.907 1.258 1.373 3.532.818 4.186l-6.568 8.9-6.567-8.9c-.555-.655-1.113-2.93.794-4.187.61-.4 1.204-.54 1.756-.505z" fill="#fff"/></g></g><text fill="#fff" filter="url(#b)" font-family="Helvetica" font-size="12.5" font-weight="bold" transform="translate(1 1)"><tspan x="50" y="28" fill="#fff">Support via Gratipay</tspan></text></g></g></svg>
